X: 682
T: Pianpuo niu
%%abc-version 2.0
%%abcx-abcm2ps-target-version 5.9.1 (29 Sep 2008)
%%abc-creator hum2abc beta
%%abcx-conversion-date 2013/10/02 07:52:30
%%abc-edited-by Helmut Schaffrath
%%humdrum-veritas 3270030699
%%humdrum-veritas-data 2839676828
%%continueall 1
%%barnumbers 0
L: 1/8
M: 2/4
K: Eb
c2G B [I:setbarnb 1]| 
c g e f | 
g f/ e/ c e | 
c BG2 | 
G B G B | 
c g e c | 
B4 | 
c B/ c/ e c | 
B4 | 
c e c B | 
G FG2 | 
c e c B | 
c e c B | 
G FG2 | 
c/ c/ c/ c/e2 | 
G/ G/ G/ F/G2 | 
c e c/ e/ c/ B/ | 
G FG2 | 
c e c/ e/ c/ B/ | 
G FG2 | 
c e c/ e/ c/ B/ | 
c e c B | 
G FG2 | 
G> B G3/ B/ | 
G B G B | 
G B G B | 
c> B G F | 
E3C | 
EE2G | 
F D C B, | 
C4 |]  



